X:1
T:Bach for Solo Flute (?)
T:Courante
T:Bach for Solo Flute (XIII)
T:Courante from Suite No. I for Cello (BWV 1007) Transcription for Flute 
T:Johann Sebastian Bach (1685-1750)
T:Transcription by Felix Scharpf
T:twoflutes 2020 / Felix Scharpf / Johann_Sebastian_Bach_signature.svg-2.png
T:twoflutes 2020 / Felix Scharpf / Johann_Sebastian_Bach_signature.svg-2.png
C:Johann Sebastian Bach (1685-1750)
Z:twoflutes 2020 / Felix Scharpf / Johann_Sebastian_Bach_signature.svg-2.png
L:1/8
Q:1/4=96
M:3/4
K:G
V:1 treble nm="Flöte" snm="Fl."
V:1
|:!mf! .g | !tenuto!g.d !tenuto!G(b/c'/ d'/c'/b/a/) | .b.d !tenuto!G(g/a/ .b).g | %3
 .e.c !tenuto!C(a/b/ c'/b/a/g/) | .f.d !tenuto!D!mp!(d/e/ f/g/a/b/) | %5
 (c'/b/c'/).a/ (c'/b/c'/).a/ .d/(c'/b/a/) | (b/a/b/).g/ (b/a/b/).g/ .c/(b/a/g/) | %7
 (f/a/d'/).d/ .g.B !tenuto!D.f | g3 (b/a/ g/f/e/d/) | .e'.^c' !tenuto!a(b/c'/) .d'/(f/e/d/) | %10
 !tenuto!A.d' T^c'(b/a/) (d'/a/)(b/f/) | (g/f/g/).e/ (g/f/g/).e/ .A/(g/f/e/) | %12
 (f/e/f/).d/ (f/e/f/).d/ .G/(f/e/d/) | (d'/^c'/b/a/) .d'(c'/b/) (a/g/f/e/) | %14
 (d/e/d/).f/ (d/e/d/).g/ (d/e/d/).a/ | (d/e/d/).b/ (d/e/d/).^c'/ (d/e/d/).d'/ | %16
 (g/f/e/d/ ^c/B/A/).g/ (Tf>e) | (a/g/b/a/ g/f/e/d/) !tenuto!ATe | D4 z ::!mf! .a | %20
 !tenuto!a.f !tenuto!d(e/f/ g/f/e/d/) | .d'.f !tenuto!c(B/c/ d/c/B/A/) | %22
 .B/(g/a/b/ c'/b/a/g/) .f.d' | .b.g !tenuto!G(b/a/ c'/b/a/g/) | %24
 .a.f !tenuto!^d/(a/b/c'/ b/a/g/f/) | .g.e !tenuto!E!mp!(g/f/ a/g/f/e/) | %26
 (=f/e/f/).a/ (f/e/f/).a/ (c'/b/c'/).a/ | ^d'2- d'/(=c'/b/a/) (g/f/)(a/^d/) | %28
 !tenuto!G.b (a/g/)(f/e/) .B.^d | E3!mf! (e/f/ g/a/b/c'/) | .d'.=f !tenuto!B(e/f/ g/f/e/d/) | %31
 .e.c !tenuto!C!mp!(c/d/ e/^f/g/e/) | .^c/(g/a/g/) (a/g/).c/g/ .c/(g/a/g/) | %33
 .=c/(f/a/f/) (a/f/).c/f/ .c/(f/a/f/) | .B/(d/e/=f/) .G/(f/e/d/) .e/(d'/c'/b/) | %35
 .^f/(a/b/c'/) .d/(c'/b/a/) .b.G | !tenuto!C(b/a/ c'/b/a/g/) .dTf | %37
!mf! (G/A/G/).B/ (G/A/G/).c/ (G/A/G/).d/ | (G/A/G/).e/ (G/A/G/).f/ (G/A/G/).g/ | %39
 (c'/b/a/g/ f/e/d/).c'/ (Tb>a) |!mp! (d'/c'/d'/).b/ (d'/c'/d'/).b/ .e/(d'/c'/b/) | %41
 (c'/b/c'/).a/ (c'/b/c'/).a/ .d/(c'/b/a/) |1 (b/a/b/).g/ .c/(b/a/g/) .d(Tf{e)f} | g4 z :|2 %44
 (b/a/b/).g/ .c/(b/[Q:1/4=76]"_rit."a/g/)[Q:1/4=70] .d[Q:1/4=50](Tf{e)f} |[Q:1/4=90] g4 z |] %46

